packages/ui/public/icons/list-view-icon.svg

<svg width="24" height="24" viewBox="0 0 24 24" fill="none" xmlns="http://www.w3.org/2000/svg">
<path opacity="0.4" d="M21 17.8L21 17.2C21 16.0799 21 15.5198 20.782 15.092C20.5903 14.7157 20.2843 14.4097 19.908 14.218C19.4802 14 18.9201 14 17.8 14L6.2 14C5.0799 14 4.5198 14 4.092 14.218C3.7157 14.4097 3.4097 14.7157 3.218 15.092C3 15.5198 3 16.0799 3 17.2L3 17.8C3 18.9201 3 19.4802 3.218 19.908C3.4097 20.2843 3.7157 20.5903 4.092 20.782C4.5198 21 5.0799 21 6.2 21L17.8 21C18.9201 21 19.4802 21 19.908 20.782C20.2843 20.5903 20.5903 20.2843 20.782 19.908C21 19.4802 21 18.9201 21 17.8Z" stroke="white" stroke-width="2" stroke-linecap="round" stroke-linejoin="round"/>
<path d="M21 6.8L21 6.2C21 5.0799 21 4.51984 20.782 4.09202C20.5903 3.71569 20.2843 3.40973 19.908 3.21799C19.4802 3 18.9201 3 17.8 3L6.2 3C5.0799 3 4.5198 3 4.092 3.21799C3.7157 3.40973 3.4097 3.71569 3.218 4.09202C3 4.51984 3 5.0799 3 6.2L3 6.8C3 7.9201 3 8.48016 3.218 8.90798C3.4097 9.28431 3.7157 9.59027 4.092 9.78201C4.5198 10 5.0799 10 6.2 10L17.8 10C18.9201 10 19.4802 10 19.908 9.78201C20.2843 9.59027 20.5903 9.28431 20.782 8.90798C21 8.48016 21 7.9201 21 6.8Z" stroke="white" stroke-width="2" stroke-linecap="round" stroke-linejoin="round"/>
</svg>

<svg width="24" height="24" fill="none" xmlns="http://www.w3.org/2000/svg"><path opacity=".4" d="M21 17.8v-.6c0-1.12 0-1.68-.218-2.108a2 2 0 0 0-.874-.874C19.48 14 18.92 14 17.8 14H6.2c-1.12 0-1.68 0-2.108.218a2 2 0 0 0-.874.874C3 15.52 3 16.08 3 17.2v.6c0 1.12 0 1.68.218 2.108a2 2 0 0 0 .874.874C4.52 21 5.08 21 6.2 21h11.6c1.12 0 1.68 0 2.108-.218a2 2 0 0 0 .874-.874C21 19.48 21 18.92 21 17.8Z" stroke="#fff" stroke-width="2" stroke-linecap="round" stroke-linejoin="round"/><path d="M21 6.8v-.6c0-1.12 0-1.68-.218-2.108a2 2 0 0 0-.874-.874C19.48 3 18.92 3 17.8 3H6.2c-1.12 0-1.68 0-2.108.218a2 2 0 0 0-.874.874C3 4.52 3 5.08 3 6.2v.6c0 1.12 0 1.68.218 2.108a2 2 0 0 0 .874.874C4.52 10 5.08 10 6.2 10h11.6c1.12 0 1.68 0 2.108-.218a2 2 0 0 0 .874-.874C21 8.48 21 7.92 21 6.8Z" stroke="#fff" stroke-width="2" stroke-linecap="round" stroke-linejoin="round"/></svg>
